X:117
T:Cuckoo, The
R:hornpipe
Z:id:hn-hornpipe-117
M:C|
L:1/8
K:G
dc | BABd cBcA | d2ge dBGF | EccB AGFG | (3ABA (3GFE D2dc |
BABd cBcA | d2ge dBGF | EccB AGFG | (3ABA GF G2 :|
|: ga | bg~g2 dgBg | bg~g2 dgBg | c'a~a2 eaca | c'a~a2 eaca |
bg~g2 dgBg | bg~g2 dgBg | (3aba (3gag (3fgf (3efe | (3ded (3cdc B2 :|
P:variations
|: dc | BGDG cAFA | d^cde dBGF | EcBc AGFG | (3ABA (3GFE DCB,D |
BGDG cAFA | d^cde dBGF | EccB AGFG | ADFA G2 :|
|: ga | bg~g2 dgBg | bg~g2 dgBg | c'a~a2 eaca | c'a~a2 eaca |
bg~g2 dgBg | bg~g2 dgBg | a2 (3gag (3fgf (3efe | (3ded (3cdc B2 :|
P:more variations
|: dc | B2Bd c2ce | d2 (3gfe dBGF | EccB AGFG | (3ABA (3GFE Dedc |
BABd cBce | dgge dBGF | EccB AGFG | (3ABA GF G2 :|
|: ga | bgfg dgBg | bgfg dgab | c'a^ga eaca | c'a^ga eaca |
bgfg dgBg | bgfg dgBg | a2 (3gag (3fgf (3efe | decd B2 :|

